X: 1
T: Beekeeper, The
M: 4/4
L: 1/8
R: reel
K: Gmaj
|:DG(3GGG ABcA|B2AB GE(3EEE|DGGF GABd|e2(3ggg edBA|
BGFG ABcA|B2AB GE(3EEE|DEGA G2Bd |1 (3efg dB G2GE:|2 (3efg dBG2GA ||
|: B2BA BcdB| cdec defd | gfgd efge|dBGB AGFE |
DG(3GGG ABcA|B2AB GE(3EEE|DEGA G2Bd |1 (3efg dB G2GB:|2 (3efg dB G2GE ||
